Numix-Circle/48x48/apps/steam_icon_317360.svg

<?xml version="1.0" encoding="UTF-8" standalone="no"?>
<svg
   xmlns:dc="http://purl.org/dc/elements/1.1/"
   xmlns:cc="http://creativecommons.org/ns#"
   xmlns:rdf="http://www.w3.org/1999/02/22-rdf-syntax-ns#"
   xmlns:svg="http://www.w3.org/2000/svg"
   xmlns="http://www.w3.org/2000/svg"
   xmlns:xlink="http://www.w3.org/1999/xlink"
   xmlns:sodipodi="http://sodipodi.sourceforge.net/DTD/sodipodi-0.dtd"
   xmlns:inkscape="http://www.inkscape.org/namespaces/inkscape"
   viewBox="0 0 48 48"
   id="svg2"
   version="1.1"
   inkscape:version="0.91 r13725"
   width="100%"
   height="100%"
   sodipodi:docname="steam_icon_317360.svg">
  <metadata
     id="metadata49">
    <rdf:RDF>
      <cc:Work
         rdf:about="">
        <dc:format>image/svg+xml</dc:format>
        <dc:type
           rdf:resource="http://purl.org/dc/dcmitype/StillImage" />
      </cc:Work>
    </rdf:RDF>
  </metadata>
  <sodipodi:namedview
     pagecolor="#ffffff"
     bordercolor="#666666"
     borderopacity="1"
     objecttolerance="10"
     gridtolerance="10"
     guidetolerance="10"
     inkscape:pageopacity="0"
     inkscape:pageshadow="2"
     inkscape:window-width="1280"
     inkscape:window-height="998"
     id="namedview47"
     showgrid="true"
     inkscape:zoom="13.906433"
     inkscape:cx="43.728162"
     inkscape:cy="23.489421"
     inkscape:window-x="0"
     inkscape:window-y="0"
     inkscape:window-maximized="1"
     inkscape:current-layer="svg2">
    <inkscape:grid
       type="xygrid"
       id="grid3811" />
  </sodipodi:namedview>
  <defs
     id="defs4">
    <linearGradient
       inkscape:collect="always"
       id="linearGradient4165">
      <stop
         style="stop-color:#e1e1e1;stop-opacity:1;"
         offset="0"
         id="stop4167" />
      <stop
         style="stop-color:#e1e1e1;stop-opacity:1"
         offset="1"
         id="stop4169" />
    </linearGradient>
    <linearGradient
       id="linearGradient3843">
      <stop
         style="stop-color:#e1e1e1;stop-opacity:1;"
         offset="0"
         id="stop3845" />
      <stop
         id="stop3851"
         offset="0.5"
         style="stop-color:#e1e1e1;stop-opacity:1" />
      <stop
         style="stop-color:#e1e1e1;stop-opacity:1;"
         offset="1"
         id="stop3847" />
    </linearGradient>
    <linearGradient
       id="linearGradient3834">
      <stop
         style="stop-color:#353535;stop-opacity:1;"
         offset="0"
         id="stop3836" />
      <stop
         style="stop-color:#3f3f3f;stop-opacity:1;"
         offset="1"
         id="stop3838" />
    </linearGradient>
    <clipPath
       id="clipPath6">
      <g
         transform="translate(0,-1004.3622)"
         id="g8">
        <path
           d="m -24 13 c 0 1.105 -0.672 2 -1.5 2 -0.828 0 -1.5 -0.895 -1.5 -2 0 -1.105 0.672 -2 1.5 -2 0.828 0 1.5 0.895 1.5 2 z"
           transform="matrix(15.333333,0,0,11.5,414.99999,878.8622)"
           fill="#1890d0"
           id="path10" />
      </g>
    </clipPath>
    <clipPath
       id="clipPath12">
      <g
         transform="translate(0,-1004.3622)"
         id="g14">
        <path
           d="m -24 13 c 0 1.105 -0.672 2 -1.5 2 -0.828 0 -1.5 -0.895 -1.5 -2 0 -1.105 0.672 -2 1.5 -2 0.828 0 1.5 0.895 1.5 2 z"
           transform="matrix(15.333333,0,0,11.5,414.99999,878.8622)"
           fill="#1890d0"
           id="path16" />
      </g>
    </clipPath>
    <linearGradient
       id="linearGradient3063"
       gradientUnits="userSpaceOnUse"
       gradientTransform="matrix(0,-1,1,0,-1.5e-6,47.999998)"
       x1="1"
       x2="47">
      <stop
         stop-color="#c22428"
         stop-opacity="1"
         id="stop19" />
      <stop
         offset="1"
         stop-color="#d3272c"
         stop-opacity="1"
         id="stop21" />
    </linearGradient>
    <clipPath
       clipPathUnits="userSpaceOnUse"
       id="clipPath3807">
      <rect
         style="opacity:0.49145298;fill:#ff6a6a;fill-opacity:1;fill-rule:nonzero;stroke:none"
         id="rect3809"
         width="145.83179"
         height="145.54414"
         x="-210.26239"
         y="-37.428089"
         ry="0.46979946" />
    </clipPath>
    <linearGradient
       inkscape:collect="always"
       xlink:href="#linearGradient3834"
       id="linearGradient3840"
       x1="24"
       y1="47"
       x2="24"
       y2="1"
       gradientUnits="userSpaceOnUse" />
    <linearGradient
       inkscape:collect="always"
       xlink:href="#linearGradient4165"
       id="linearGradient4171"
       x1="24"
       y1="47"
       x2="24"
       y2="1"
       gradientUnits="userSpaceOnUse" />
  </defs>
  <g
     id="g23">
    <path
       d="m 36.31 5 c 5.859 4.062 9.688 10.831 9.688 18.5 c 0 12.426 -10.07 22.5 -22.5 22.5 c -7.669 0 -14.438 -3.828 -18.5 -9.688 c 1.037 1.822 2.306 3.499 3.781 4.969 c 4.085 3.712 9.514 5.969 15.469 5.969 c 12.703 0 23 -10.298 23 -23 c 0 -5.954 -2.256 -11.384 -5.969 -15.469 c -1.469 -1.475 -3.147 -2.744 -4.969 -3.781 z m 4.969 3.781 c 3.854 4.113 6.219 9.637 6.219 15.719 c 0 12.703 -10.297 23 -23 23 c -6.081 0 -11.606 -2.364 -15.719 -6.219 c 4.16 4.144 9.883 6.719 16.219 6.719 c 12.703 0 23 -10.298 23 -23 c 0 -6.335 -2.575 -12.06 -6.719 -16.219 z"
       opacity="0.05"
       id="path25" />
    <path
       d="m 41.28 8.781 c 3.712 4.085 5.969 9.514 5.969 15.469 c 0 12.703 -10.297 23 -23 23 c -5.954 0 -11.384 -2.256 -15.469 -5.969 c 4.113 3.854 9.637 6.219 15.719 6.219 c 12.703 0 23 -10.298 23 -23 c 0 -6.081 -2.364 -11.606 -6.219 -15.719 z"
       opacity="0.1"
       id="path27" />
    <path
       d="m 31.25 2.375 c 8.615 3.154 14.75 11.417 14.75 21.13 c 0 12.426 -10.07 22.5 -22.5 22.5 c -9.708 0 -17.971 -6.135 -21.12 -14.75 a 23 23 0 0 0 44.875 -7 a 23 23 0 0 0 -16 -21.875 z"
       opacity="0.2"
       id="path29" />
  </g>
  <path
     d="M 24 1 L 24 47 C 36.703 47 47 36.703 47 24 C 47 11.297 36.703 1 24 1 z "
     fill="url(#linearGradient3063)"
     fill-opacity="1"
     id="path31"
     style="fill:url(#linearGradient4171);fill-opacity:1" />
  <path
     d="M 24 1 C 11.297 1 1 11.297 1 24 C 1 36.703 11.297 47 24 47 L 24 1 z "
     fill="#4a783d"
     fill-rule="nonzero"
     stroke="none"
     fill-opacity="1"
     id="path33"
     style="fill:url(#linearGradient3840);fill-opacity:1" />
  <g
     id="g43">
    <path
       d="m 40.03 7.531 c 3.712 4.084 5.969 9.514 5.969 15.469 0 12.703 -10.297 23 -23 23 c -5.954 0 -11.384 -2.256 -15.469 -5.969 4.178 4.291 10.01 6.969 16.469 6.969 c 12.703 0 23 -10.298 23 -23 0 -6.462 -2.677 -12.291 -6.969 -16.469 z"
       opacity="0.1"
       id="path45" />
  </g>
  <path
     id="path3012"
     d="m 13,13 0,24 6,0 c 2,0 4,-2 4,-4 l 0,-16 c 0,-2 -2,-4 -4,-4 l -6,0 z m 4,4 1,0 c 0.56712,0 1,0.466271 1,1 l 0,14 c 0,0.501253 -0.466008,1 -1,1 l -1,0 0,-16 z"
     style="fill:#000000;fill-opacity:1;stroke:none;opacity:0.1"
     inkscape:connector-curvature="0" />
  <path
     style="opacity:1;fill:#e6d329;fill-opacity:1;stroke:none"
     d="M 12 12 L 12 36 L 18 36 C 20 36 22 34 22 32 L 22 16 C 22 14 20 12 18 12 L 12 12 z M 16 16 L 17 16 C 17.56712 16 18 16.466271 18 17 L 18 31 C 18 31.501253 17.533992 32 17 32 L 16 32 L 16 16 z "
     id="path3813" />
  <path
     inkscape:connector-curvature="0"
     id="path3014"
     d="m 29,13 -3,24 4,0 0.34375,-4 3.3125,0 L 34,37 38,37 35,13 34.53125,13 32,13 29.46875,13 29,13 z m 2.40625,7 1.1875,0 0.75,9 -2.6875,0 0.75,-9 z"
     style="fill:#000000;fill-opacity:1;stroke:none;opacity:0.1" />
  <path
     style="fill:#353535;fill-opacity:1;stroke:none"
     d="m 28,12 -3,24 4,0 0.34375,-4 3.3125,0 L 33,36 37,36 34,12 33.53125,12 31,12 28.46875,12 28,12 z m 2.40625,7 1.1875,0 0.75,9 -2.6875,0 0.75,-9 z"
     id="path3823"
     inkscape:connector-curvature="0" />
</svg>

<svg xmlns="http://www.w3.org/2000/svg" viewBox="0 0 48 48">
 <defs>
  <linearGradient id="linearGradient3840" y1="47" x2="0" y2="1" gradientUnits="userSpaceOnUse">
   <stop style="stop-color:#353535;stop-opacity:1"/>
   <stop offset="1" style="stop-color:#3f3f3f;stop-opacity:1"/>
  </linearGradient>
  <linearGradient id="linearGradient4171" y1="47" x2="0" y2="1" gradientUnits="userSpaceOnUse">
   <stop style="stop-color:#e1e1e1;stop-opacity:1"/>
   <stop offset="1" style="stop-color:#e1e1e1;stop-opacity:1"/>
  </linearGradient>
 </defs>
 <g>
  <path d="m 36.31 5 c 5.859 4.062 9.688 10.831 9.688 18.5 c 0 12.426 -10.07 22.5 -22.5 22.5 c -7.669 0 -14.438 -3.828 -18.5 -9.688 c 1.037 1.822 2.306 3.499 3.781 4.969 c 4.085 3.712 9.514 5.969 15.469 5.969 c 12.703 0 23 -10.298 23 -23 c 0 -5.954 -2.256 -11.384 -5.969 -15.469 c -1.469 -1.475 -3.147 -2.744 -4.969 -3.781 z m 4.969 3.781 c 3.854 4.113 6.219 9.637 6.219 15.719 c 0 12.703 -10.297 23 -23 23 c -6.081 0 -11.606 -2.364 -15.719 -6.219 c 4.16 4.144 9.883 6.719 16.219 6.719 c 12.703 0 23 -10.298 23 -23 c 0 -6.335 -2.575 -12.06 -6.719 -16.219 z" style="opacity:0.05"/>
  <path d="m 41.28 8.781 c 3.712 4.085 5.969 9.514 5.969 15.469 c 0 12.703 -10.297 23 -23 23 c -5.954 0 -11.384 -2.256 -15.469 -5.969 c 4.113 3.854 9.637 6.219 15.719 6.219 c 12.703 0 23 -10.298 23 -23 c 0 -6.081 -2.364 -11.606 -6.219 -15.719 z" style="opacity:0.1"/>
  <path d="m 31.25 2.375 c 8.615 3.154 14.75 11.417 14.75 21.13 c 0 12.426 -10.07 22.5 -22.5 22.5 c -9.708 0 -17.971 -6.135 -21.12 -14.75 a 23 23 0 0 0 44.875 -7 a 23 23 0 0 0 -16 -21.875 z" style="opacity:0.2"/>
 </g>
 <path d="M 24 1 L 24 47 C 36.703 47 47 36.703 47 24 C 47 11.297 36.703 1 24 1 z " style="fill:url(#linearGradient4171);fill-opacity:1"/>
 <path d="M 24 1 C 11.297 1 1 11.297 1 24 C 1 36.703 11.297 47 24 47 L 24 1 z " style="fill:url(#linearGradient3840);fill-opacity:1;stroke:none;fill-rule:nonzero"/>
 <g>
  <path d="m 40.03 7.531 c 3.712 4.084 5.969 9.514 5.969 15.469 0 12.703 -10.297 23 -23 23 c -5.954 0 -11.384 -2.256 -15.469 -5.969 4.178 4.291 10.01 6.969 16.469 6.969 c 12.703 0 23 -10.298 23 -23 0 -6.462 -2.677 -12.291 -6.969 -16.469 z" style="opacity:0.1"/>
 </g>
 <path d="m 13 13 0 24 6 0 c 2 0 4 -2 4 -4 l 0 -16 c 0 -2 -2 -4 -4 -4 l -6 0 z m 4 4 1 0 c 0.567 0 1 0.466 1 1 l 0 14 c 0 0.501 -0.466 1 -1 1 l -1 0 0 -16 z" style="fill:#000;opacity:0.1;fill-opacity:1;stroke:none"/>
 <path d="m 12 12 l 0 24 l 6 0 c 2 0 4 -2 4 -4 l 0 -16 c 0 -2 -2 -4 -4 -4 l -6 0 z m 4 4 l 1 0 c 0.567 0 1 0.466 1 1 l 0 14 c 0 0.501 -0.466 1 -1 1 l -1 0 l 0 -16 z" style="fill:#e6d329;opacity:1;fill-opacity:1;stroke:none"/>
 <path d="m 29 13 -3 24 4 0 0.344 -4 3.313 0 l 0.344 4 4 0 -3 -24 -0.469 0 -2.531 0 -2.531 0 -0.469 0 z m 2.406 7 1.188 0 0.75 9 -2.688 0 0.75 -9 z" style="fill:#000;opacity:0.1;fill-opacity:1;stroke:none"/>
 <path d="m 28 12 -3 24 4 0 0.344 -4 3.313 0 l 0.344 4 4 0 -3 -24 -0.469 0 -2.531 0 -2.531 0 -0.469 0 z m 2.406 7 1.188 0 0.75 9 -2.688 0 0.75 -9 z" style="fill:#353535;fill-opacity:1;stroke:none"/>
</svg>
